X:1
T:My Way
C:Jacques Revaux & Claude Francois
Q:1/4=80
M:C
K:Eb
L:1/4
V:1
%%MIDI program 57
z4 | z2 z z/ B,/- | B,/ G3/2 z3/4 B,/4 G3/4B,/4 | G2 z3/4 B,/4 G/4F3/4 |
V:2
"Eb"E/B/e/B/ g/B/e/B/ | E/B/e/B/ g/B/e/B/ | E/B/e/B/ g/B/e/B/ | "Bb/D"D/B/f/B/ g/B/f/B/ |
"Bbm6/Db"_D/B/f/B/ g/B/f/B/ | "C7"C/B/=E/B/ g/B/=E/B/ | "Fm"F/c/f/c/ a/c/f/c/ |
